X:1
T:Title
%%score { ( 1 2 ) | ( 3 4 ) }
L:1/8
Q:1/4=100
M:4/4
K:A
V:1 treble nm="Grand Piano"
V:2 treble 
V:3 bass 
V:4 bass 
V:1
 A2 E2 z Bcd | e4 c4 | [EAc]2 [DEB]2 [CEA]2 [B,EG]2 | [CEA]6 z2 | A2 E2 z Bcd | %5
w: J.~H.~Tenney * * * *|||||
 e2 [CAc]2 [DA]2 [FAd]2 | [EAc]4 [DGB]3 [DGB] | [CA]6 z2 | z4 [Fd]2 d2 | c4 c4 | d2 c2 B2 A2 | %11
w: ||||||
 [Ge]6 z2 | c2 e2 A2 [GB]2 | [Ac]2 [Ad]2 [Ee]2 [Fd]2 | c4 B3 B | [CA]6 z2 |] %16
w: |||||
V:2
 z4 A2 z2 | x8 | x8 | x8 | z4 A2 z2 | x8 | x8 | x8 | [Fd]2 [Fd]2 z E, z G, | x8 | x8 | x8 | x8 | %13
 x8 | x8 | x8 |] %16
V:3
 z4 z2[K:treble] [A,A]2 | [A,CA]4 [A,EA]4 | E,2 E,2 E,2 E,2 | A,,6 z2 | z4 z2[K:treble] [A,A]2 | %5
 [A,CA]2[K:bass] =G,2 F,2 D,2 | E,4 E,3 E, | A,,6 z2 | [D,A,]2 [D,A,]2 .[D,A,]2 .[F,A,F]2 | %9
 [A,E]4[K:treble] [A,E]4 | [B,EG]2 [A,EA]2 [G,E]2 [F,^DF]2 | [E,E]6 z2 | %12
 [A,E]2 [G,B,E]2 [F,CF]2 [E,E]2 | [A,E]2 [F,A,]2 [C,A,]2 [D,A,]2 | [E,A,E]4 [E,G,D]3 [E,G,D] | %15
 [A,,A,]6 z2 |] %16
V:4
 A,2 E,2 A,2[K:treble] z B, | x8 | x8 | x8 | A,2 E,2 A,2[K:treble] z B, | x2[K:bass] x6 | x8 | x8 | %8
 x8 | x4[K:treble] x4 | x8 | x8 | x8 | x8 | x8 | x8 |] %16

